packages/IcoMoon/src/LibraryIcon/index.svg

<svg version="1.1" xmlns="http://www.w3.org/2000/svg" width="17" height="16" viewBox="0 0 17 16">
<path d="M16 15v-1h-1v-6h1v-1h-3v1h1v6h-3v-6h1v-1h-3v1h1v6h-3v-6h1v-1h-3v1h1v6h-3v-6h1v-1h-3v1h1v6h-1v1h-1v1h17v-1h-1z"></path>
<path d="M8 0h1l8 5v1h-17v-1l8-5z"></path>
</svg>

<svg xmlns="http://www.w3.org/2000/svg" viewBox="0 0 17 16">
  <path d="M16 15v-1h-1V8h1V7h-3v1h1v6h-3V8h1V7H9v1h1v6H7V8h1V7H5v1h1v6H3V8h1V7H1v1h1v6H1v1H0v1h17v-1h-1zM8 0h1l8 5v1H0V5l8-5z"/>
</svg>
